; generated by Slic3r 1.2.9 on 2017-07-05 at 10:25:19

; external perimeters extrusion width = 0.40mm
; perimeters extrusion width = 0.48mm
; infill extrusion width = 0.48mm
; solid infill extrusion width = 0.48mm
; top infill extrusion width = 0.48mm

M190 S65 ; set bed temperature
M104 S200 ; set temperature
G28 ; home all axes
G1 Z5 F5000 ; lift nozzle
M109 S200 ; wait for temperature to be reached
G21 ; set units to millimeters
G90 ; use absolute coordinates
M82 ; use absolute distances for extrusion
G92 E0
G1 E-0.80000 F1800.00000
G92 E0
G1 Z0.200 F6600.000
G1 Z0.350 F6600.000
G1 Z0.550 F6600.000
G1 X67.084 Y111.533 F6600.000
G1 Z0.350 F6600.000
G1 E0.80000 F1800.00000
M204 S1000
G1 X130.742 Y111.533 E3.34630 F1200.000
G1 X133.399 Y114.190 E3.49660
G1 X133.399 Y152.929 E5.04613 F1200.000
G1 X130.742 Y155.585 E5.19643
G1 X67.084 Y155.585 E7.74272
G1 X64.427 Y152.929 E7.89302
G1 X64.427 Y114.190 E9.44255
G1 X67.042 Y111.576 E9.59045
G1 X67.198 Y111.808 F6600.000
G1 X130.628 Y111.808 E12.12764 F1200.000
G1 X133.124 Y114.304 E12.26883 F1200.000
G1 X133.124 Y152.815 E13.80925
G1 X130.628 Y155.311 E13.95044
G1 X67.198 Y155.311 E16.48763
G1 X64.702 Y152.815 E16.62882
G1 X64.702 Y114.304 E18.16924
G1 X67.156 Y111.851 E18.30803
G1 X67.312 Y112.083 F6600.000
G1 X130.514 Y112.083 E20.83611 F1200.000
G1 X132.849 Y114.418 E20.96819
G1 X132.849 Y152.701 E22.49951 F1200.000
G1 X130.514 Y155.036 E22.63159
G1 X67.312 Y155.036 E25.15967
G1 X64.977 Y152.701 E25.29175
G1 X64.977 Y114.418 E26.82306
G1 X67.270 Y112.126 E26.95274
G1 X67.426 Y112.358 F6600.000
G1 X130.400 Y112.358 E29.47171 F1200.000
G1 X132.574 Y114.532 E29.59468 F1200.000
G1 X132.574 Y152.587 E31.11689
G1 X130.400 Y154.761 E31.23986
G1 X67.426 Y154.761 E33.75883
G1 X65.252 Y152.587 E33.88180
G1 X65.252 Y114.532 E35.40400
G1 X67.384 Y112.400 E35.52458
G1 X67.540 Y112.633 F6600.000
G1 X130.286 Y112.633 E38.03444 F1200.000
G1 X132.299 Y114.646 E38.14830
G1 X132.299 Y152.473 E39.66140 F1200.000
G1 X130.286 Y154.486 E39.77526
G1 X67.540 Y154.486 E42.28512
G1 X65.527 Y152.473 E42.39898
G1 X65.527 Y114.646 E43.91208
G1 X67.497 Y112.675 E44.02354
G1 X67.654 Y112.908 F6600.000
G1 X130.173 Y112.908 E46.52429 F1200.000
G1 X132.024 Y114.760 E46.62905 F1200.000
G1 X132.024 Y152.359 E48.13303
G1 X130.173 Y154.211 E48.23779
G1 X67.654 Y154.211 E50.73854
G1 X65.802 Y152.359 E50.84329
G1 X65.802 Y114.760 E52.34728
G1 X67.611 Y112.950 E52.44963
G1 X67.768 Y113.183 F6600.000
G1 X130.059 Y113.183 E54.94128 F1200.000
G1 X131.749 Y114.873 E55.03692
G1 X131.749 Y152.245 E56.53180 F1200.000
G1 X130.059 Y153.936 E56.62744
G1 X67.768 Y153.936 E59.11909
G1 X66.077 Y152.245 E59.21473
G1 X66.077 Y114.873 E60.70961
G1 X67.725 Y113.225 E60.80285
G1 X67.881 Y113.458 F6600.000
G1 X129.945 Y113.458 E63.28539 F1200.000
G1 X131.475 Y114.987 E63.37192 F1200.000
G1 X131.475 Y152.131 E64.85769
G1 X129.945 Y153.661 E64.94423
G1 X67.881 Y153.661 E67.42676
G1 X66.352 Y152.131 E67.51330
G1 X66.352 Y114.987 E68.99906
G1 X67.839 Y113.500 E69.08320
G1 X67.995 Y113.732 F6600.000
G1 X129.831 Y113.732 E71.55663 F1200.000
G1 X131.200 Y115.101 E71.63405
G1 X131.200 Y152.018 E73.11071 F1200.000
G1 X129.831 Y153.386 E73.18814
G1 X67.995 Y153.386 E75.66156
G1 X66.627 Y152.018 E75.73899
G1 X66.627 Y115.101 E77.21565
G1 X67.953 Y113.775 E77.29067
G1 X68.109 Y114.007 F6600.000
G1 X129.717 Y114.007 E79.75499 F1200.000
G1 X130.925 Y115.215 E79.82331 F1200.000
G1 X130.925 Y151.904 E81.29086
G1 X129.717 Y153.111 E81.35918
G1 X68.109 Y153.111 E83.82349
G1 X66.901 Y151.904 E83.89181
G1 X66.901 Y115.215 E85.35936
G1 X68.067 Y114.050 E85.42528
G1 X68.223 Y114.282 F6600.000
G1 X129.603 Y114.282 E87.88049 F1200.000
G1 X130.650 Y115.329 E87.93970
G1 X130.650 Y151.790 E89.39813 F1200.000
G1 X129.603 Y152.837 E89.45734
G1 X68.223 Y152.837 E91.91255
G1 X67.176 Y151.790 E91.97176
G1 X67.176 Y115.329 E93.43020
G1 X68.181 Y114.325 E93.48701
G1 X68.337 Y114.557 F6600.000
G1 X129.489 Y114.557 E95.93311 F1200.000
G1 X130.375 Y115.443 E95.98321 F1200.000
G1 X130.375 Y151.676 E97.43254
G1 X129.489 Y152.562 E97.48264
G1 X68.337 Y152.562 E99.92874
G1 X67.451 Y151.676 E99.97884
G1 X67.451 Y115.443 E101.42817
G1 X68.294 Y114.600 E101.47587
G1 X68.451 Y114.832 F6600.000
G1 X129.376 Y114.832 E103.91286 F1200.000
G1 X130.100 Y115.557 E103.95385
G1 X130.100 Y151.562 E105.39407 F1200.000
G1 X129.376 Y152.287 E105.43506
G1 X68.451 Y152.287 E107.87205
G1 X67.726 Y151.562 E107.91304
G1 X67.726 Y115.557 E109.35326
G1 X68.408 Y114.874 E109.39185
G1 X68.565 Y115.107 F6600.000
G1 X129.262 Y115.107 E111.81974 F1200.000
G1 X129.825 Y115.671 E111.85162 F1200.000
G1 X129.825 Y151.448 E113.28273
G1 X129.262 Y152.012 E113.31461
G1 X68.565 Y152.012 E115.74249
G1 X68.001 Y151.448 E115.77437
G1 X68.001 Y115.671 E117.20549
G1 X68.522 Y115.149 E117.23497
G1 X68.679 Y115.382 F6600.000
G1 X129.148 Y115.382 E119.65374 F1200.000
G1 X129.550 Y115.784 E119.67651
G1 X129.550 Y151.334 E121.09852 F1200.000
G1 X129.148 Y151.737 E121.12129
G1 X68.679 Y151.737 E123.54006
G1 X68.276 Y151.334 E123.56283
G1 X68.276 Y115.784 E124.98484
G1 X68.636 Y115.424 E125.00521
G1 X68.792 Y115.657 F6600.000
G1 X129.034 Y115.657 E127.41487 F1200.000
G1 X129.275 Y115.898 E127.42854 F1200.000
G1 X129.275 Y151.221 E128.84143
G1 X129.034 Y151.462 E128.85510
G1 X68.792 Y151.462 E131.26476
G1 X68.551 Y151.221 E131.27842
G1 X68.551 Y115.898 E132.69132
G1 X68.750 Y115.699 E132.70258
G1 X68.906 Y115.932 F6600.000
G1 X128.920 Y115.932 E135.10314 F1200.000
G1 X129.001 Y116.012 E135.10769
G1 X129.001 Y151.107 E136.51148
G1 X128.920 Y151.187 E136.51603
G1 X68.906 Y151.187 E138.91658
G1 X68.826 Y151.107 E138.92114
G1 X68.826 Y116.012 E140.32492
G1 X68.864 Y115.974 E140.32708
G1 E139.52708 F1800.00000
G92 E0
G1 Z0.550 F6600.000
G1 X128.688 Y150.875 F6600.000
G1 Z0.350 F6600.000
G1 E0.80000 F1800.00000
G1 X69.138 Y150.875 E3.18200 F1080.000
G1 X69.138 Y116.244 E4.56723
G1 X128.688 Y116.244 E6.94923
G1 X128.688 Y150.815 E8.33207
G1 X128.342 Y150.675 F6600.000
G1 X128.413 Y150.600 F6600.000
G1 X69.413 Y150.600 E10.69207 F1200.000
G1 X69.413 Y116.519 E12.05532
G1 X128.413 Y116.519 E14.41532
G1 X128.413 Y150.540 E15.77617
G1 X128.138 Y150.325 F6600.000
G1 X69.688 Y150.325 E18.11418 F1200.000
G1 X69.688 Y116.794 E19.45543
G1 X128.138 Y116.794 E21.79345
G1 X128.138 Y150.265 E23.13230
G1 X124.138 Y146.325 F6600.000
G1 X104.688 Y146.325 E23.91030 F1080.000
G1 X104.688 Y132.875 E24.44830
G1 X124.138 Y132.875 E25.22630
G1 X124.138 Y146.265 E25.76190
G1 X124.138 Y146.725 F6600.000
G1 X124.413 Y146.600 F6600.000
G1 X104.413 Y146.600 E26.56189 F1200.000
G1 X104.413 Y132.600 E27.12188
G1 X124.413 Y132.600 E27.92187
G1 X124.413 Y146.540 E28.47946
G1 X124.688 Y146.875 F6600.000
G1 X104.138 Y146.875 E29.30144 F1200.000
G1 X104.138 Y132.325 E29.88342
G1 X124.688 Y132.325 E30.70541
G1 X124.688 Y146.815 E31.28499
G1 X104.213 Y147.030 F6600.000
G1 X107.352 Y150.170 E31.46276 F1200.000
G1 X107.742 Y150.170 E31.47833
G1 X104.602 Y147.030 E31.65610
G1 X104.991 Y147.030 E31.67168
G1 X108.131 Y150.170 E31.84945
G1 X108.520 Y150.170 E31.86503
G1 X105.380 Y147.030 E32.04280
G1 X105.769 Y147.030 E32.05837
G1 X108.909 Y150.170 E32.23614
G1 X109.298 Y150.170 E32.25172
G1 X106.158 Y147.030 E32.42949
G1 X106.547 Y147.030 E32.44507
G1 X109.687 Y150.170 E32.62284
G1 X110.076 Y150.170 E32.63842
G1 X106.936 Y147.030 E32.81618
G1 X107.325 Y147.030 E32.83176
G1 X110.465 Y150.170 E33.00953
G1 X110.854 Y150.170 E33.02511
G1 X107.714 Y147.030 E33.20288
G1 X108.104 Y147.030 E33.21846
G1 X111.243 Y150.170 E33.39623
G1 X111.632 Y150.170 E33.41180
G1 X108.493 Y147.030 E33.58957
G1 X108.882 Y147.030 E33.60515
G1 X112.022 Y150.170 E33.78292
G1 X112.411 Y150.170 E33.79850
G1 X109.271 Y147.030 E33.97627
G1 X109.660 Y147.030 E33.99184
G1 X112.800 Y150.170 E34.16961
G1 X113.189 Y150.170 E34.18519
G1 X110.049 Y147.030 E34.36296
G1 X110.438 Y147.030 E34.37854
G1 X113.578 Y150.170 E34.55631
G1 X113.967 Y150.170 E34.57188
G1 X110.827 Y147.030 E34.74965
G1 X111.216 Y147.030 E34.76523
G1 X114.356 Y150.170 E34.94300
G1 X114.745 Y150.170 E34.95858
G1 X111.605 Y147.030 E35.13635
G1 X111.994 Y147.030 E35.15192
G1 X115.134 Y150.170 E35.32969
G1 X115.523 Y150.170 E35.34527
G1 X112.384 Y147.030 E35.52304
G1 X112.773 Y147.030 E35.53862
G1 X115.912 Y150.170 E35.71639
G1 X116.302 Y150.170 E35.73196
G1 X113.162 Y147.030 E35.90973
G1 X113.551 Y147.030 E35.92531
G1 X116.691 Y150.170 E36.10308
G1 X117.080 Y150.170 E36.11866
G1 X113.940 Y147.030 E36.29643
G1 X114.329 Y147.030 E36.31201
G1 X117.469 Y150.170 E36.48978
G1 X117.858 Y150.170 E36.50535
G1 X114.718 Y147.030 E36.68312
G1 X115.107 Y147.030 E36.69870
G1 X118.247 Y150.170 E36.87647
G1 X118.636 Y150.170 E36.89205
G1 X115.496 Y147.030 E37.06982
G1 X115.885 Y147.030 E37.08539
G1 X119.025 Y150.170 E37.26316
G1 X119.414 Y150.170 E37.27874
G1 X116.274 Y147.030 E37.45651
G1 X116.664 Y147.030 E37.47209
G1 X119.803 Y150.170 E37.64986
G1 X120.192 Y150.170 E37.66543
G1 X117.053 Y147.030 E37.84320
G1 X117.442 Y147.030 E37.85878
G1 X120.582 Y150.170 E38.03655
G1 X120.971 Y150.170 E38.05213
G1 X117.831 Y147.030 E38.22990
G1 X118.220 Y147.030 E38.24547
G1 X121.360 Y150.170 E38.42324
G1 X121.749 Y150.170 E38.43882
G1 X118.609 Y147.030 E38.61659
G1 X118.998 Y147.030 E38.63217
G1 X122.138 Y150.170 E38.80994
G1 X122.527 Y150.170 E38.82551
G1 X119.387 Y147.030 E39.00328
G1 X119.776 Y147.030 E39.01886
G1 X122.916 Y150.170 E39.19663
G1 X123.305 Y150.170 E39.21221
G1 X120.165 Y147.030 E39.38998
G1 X120.554 Y147.030 E39.40556
G1 X123.694 Y150.170 E39.58332
G1 X124.083 Y150.170 E39.59890
G1 X120.944 Y147.030 E39.77667
G1 X121.333 Y147.030 E39.79225
G1 X124.472 Y150.170 E39.97002
G1 X124.862 Y150.170 E39.98560
G1 X121.722 Y147.030 E40.16337
G1 X122.111 Y147.030 E40.17894
G1 X125.251 Y150.170 E40.35671
G1 X125.640 Y150.170 E40.37229
G1 X122.500 Y147.030 E40.55006
G1 X122.889 Y147.030 E40.56564
G1 X126.029 Y150.170 E40.74341
G1 X126.418 Y150.170 E40.75898
G1 X123.278 Y147.030 E40.93675
G1 X123.667 Y147.030 E40.95233
G1 X126.807 Y150.170 E41.13010
G1 X127.196 Y150.170 E41.14568
G1 X124.056 Y147.030 E41.32345
G1 X124.445 Y147.030 E41.33902
G1 X127.585 Y150.170 E41.51679
G1 X127.959 Y150.154 E41.53176
G1 X124.834 Y147.030 E41.70864
G1 X124.843 Y146.650 E41.72387
G1 X127.983 Y149.789 E41.90164
G1 X127.983 Y149.400 E41.91722
G1 X124.843 Y146.260 E42.09499
G1 X124.843 Y145.871 E42.11057
G1 X127.983 Y149.011 E42.28834
G1 X127.983 Y148.622 E42.30391
G1 X124.843 Y145.482 E42.48168
G1 X124.843 Y145.093 E42.49726
G1 X127.983 Y148.233 E42.67503
G1 X127.983 Y147.844 E42.69061
G1 X124.843 Y144.704 E42.86838
G1 X124.843 Y144.315 E42.88396
G1 X127.983 Y147.455 E43.06172
G1 X127.983 Y147.066 E43.07730
G1 X124.843 Y143.926 E43.25507
G1 X124.843 Y143.537 E43.27065
G1 X127.983 Y146.677 E43.44842
G1 X127.983 Y146.288 E43.46400
G1 X124.843 Y143.148 E43.64177
G1 X124.843 Y142.759 E43.65734
G1 X127.983 Y145.898 E43.83511
G1 X127.983 Y145.509 E43.85069
G1 X124.843 Y142.370 E44.02846
G1 X124.843 Y141.980 E44.04404
G1 X127.983 Y145.120 E44.22181
G1 X127.983 Y144.731 E44.23738
G1 X124.843 Y141.591 E44.41515
G1 X124.843 Y141.202 E44.43073
G1 X127.983 Y144.342 E44.60850
G1 X127.983 Y143.953 E44.62408
G1 X124.843 Y140.813 E44.80185
G1 X124.843 Y140.424 E44.81742
G1 X127.983 Y143.564 E44.99519
G1 X127.983 Y143.175 E45.01077
G1 X124.843 Y140.035 E45.18854
G1 X124.843 Y139.646 E45.20412
G1 X127.983 Y142.786 E45.38189
G1 X127.983 Y142.397 E45.39746
G1 X124.843 Y139.257 E45.57523
G1 X124.843 Y138.868 E45.59081
G1 X127.983 Y142.008 E45.76858
G1 X127.983 Y141.618 E45.78416
G1 X124.843 Y138.479 E45.96193
G1 X124.843 Y138.090 E45.97750
G1 X127.983 Y141.229 E46.15527
G1 X127.983 Y140.840 E46.17085
G1 X124.843 Y137.700 E46.34862
G1 X124.843 Y137.311 E46.36420
G1 X127.983 Y140.451 E46.54197
G1 X127.983 Y140.062 E46.55755
G1 X124.843 Y136.922 E46.73531
G1 X124.843 Y136.533 E46.75089
G1 X127.983 Y139.673 E46.92866
G1 X127.983 Y139.284 E46.94424
G1 X124.843 Y136.144 E47.12201
G1 X124.843 Y135.755 E47.13759
G1 X127.983 Y138.895 E47.31536
G1 X127.983 Y138.506 E47.33093
G1 X124.843 Y135.366 E47.50870
G1 X124.843 Y134.977 E47.52428
G1 X127.983 Y138.117 E47.70205
G1 X127.983 Y137.728 E47.71763
G1 X124.843 Y134.588 E47.89540
G1 X124.843 Y134.199 E47.91097
G1 X127.983 Y137.338 E48.08874
G1 X127.983 Y136.949 E48.10432
G1 X124.843 Y133.810 E48.28209
G1 X124.843 Y133.420 E48.29767
G1 X127.983 Y136.560 E48.47544
G1 X127.983 Y136.171 E48.49101
G1 X124.843 Y133.031 E48.66878
G1 X124.843 Y132.642 E48.68436
G1 X127.983 Y135.782 E48.86213
G1 X127.983 Y135.393 E48.87771
G1 X109.539 Y116.949 E49.92196
G1 X109.928 Y116.949 E49.93754
G1 X127.983 Y135.004 E50.95976
G1 X127.983 Y134.615 E50.97534
G1 X110.317 Y116.949 E51.97553
G1 X110.706 Y116.949 E51.99111
G1 X127.983 Y134.226 E52.96928
G1 X127.983 Y133.837 E52.98485
G1 X111.096 Y116.949 E53.94099
G1 X111.485 Y116.949 E53.95656
G1 X127.983 Y133.448 E54.89067
G1 X127.983 Y133.058 E54.90625
G1 X111.874 Y116.949 E55.81832
G1 X112.263 Y116.949 E55.83390
G1 X127.983 Y132.669 E56.72395
G1 X127.983 Y132.280 E56.73953
G1 X112.652 Y116.949 E57.60754
G1 X113.041 Y116.949 E57.62312
G1 X127.983 Y131.891 E58.46911
G1 X127.983 Y131.502 E58.48469
G1 X113.430 Y116.949 E59.30864
G1 X113.819 Y116.949 E59.32422
G1 X127.983 Y131.113 E60.12615
G1 X127.983 Y130.724 E60.14173
G1 X114.208 Y116.949 E60.92163
G1 X114.597 Y116.949 E60.93720
G1 X127.983 Y130.335 E61.69507
G1 X127.983 Y129.946 E61.71065
G1 X114.986 Y116.949 E62.44649
G1 X115.376 Y116.949 E62.46207
G1 X127.983 Y129.557 E63.17588
G1 X127.983 Y129.168 E63.19146
G1 X115.765 Y116.949 E63.88324
G1 X116.154 Y116.949 E63.89882
G1 X127.983 Y128.778 E64.56857
G1 X127.983 Y128.389 E64.58415
G1 X116.543 Y116.949 E65.23187
G1 X116.932 Y116.949 E65.24745
G1 X127.983 Y128.000 E65.87314
G1 X127.983 Y127.611 E65.88872
G1 X117.321 Y116.949 E66.49238
G1 X117.710 Y116.949 E66.50796
G1 X127.983 Y127.222 E67.08959
G1 X127.983 Y126.833 E67.10517
G1 X118.099 Y116.949 E67.66477
G1 X118.488 Y116.949 E67.68035
G1 X127.983 Y126.444 E68.21793
G1 X127.983 Y126.055 E68.23350
G1 X118.877 Y116.949 E68.74905
G1 X119.266 Y116.949 E68.76463
G1 X127.983 Y125.666 E69.25814
G1 X127.983 Y125.277 E69.27372
G1 X119.656 Y116.949 E69.74521
G1 X120.045 Y116.949 E69.76078
G1 X127.983 Y124.888 E70.21024
G1 X127.983 Y124.498 E70.22582
G1 X120.434 Y116.949 E70.65325
G1 X120.823 Y116.949 E70.66882
G1 X127.983 Y124.109 E71.07422
G1 X127.983 Y123.720 E71.08980
G1 X121.212 Y116.949 E71.47317
G1 X121.601 Y116.949 E71.48875
G1 X127.983 Y123.331 E71.85009
G1 X127.983 Y122.942 E71.86566
G1 X121.990 Y116.949 E72.20497
G1 X122.379 Y116.949 E72.22055
G1 X127.983 Y122.553 E72.53783
G1 X127.983 Y122.164 E72.55341
G1 X122.768 Y116.949 E72.84866
G1 X123.157 Y116.949 E72.86424
G1 X127.983 Y121.775 E73.13746
G1 X127.983 Y121.386 E73.15303
G1 X123.546 Y116.949 E73.40423
G1 X123.936 Y116.949 E73.41980
G1 X127.983 Y120.997 E73.64897
G1 X127.983 Y120.608 E73.66454
G1 X124.325 Y116.949 E73.87168
G1 X124.714 Y116.949 E73.88725
G1 X127.983 Y120.218 E74.07236
G1 X127.983 Y119.829 E74.08793
G1 X125.103 Y116.949 E74.25101
G1 X125.492 Y116.949 E74.26659
G1 X127.983 Y119.440 E74.40763
G1 X127.983 Y119.051 E74.42321
G1 X125.881 Y116.949 E74.54222
G1 X126.270 Y116.949 E74.55780
G1 X127.983 Y118.662 E74.65479
G1 X127.983 Y118.273 E74.67036
G1 X126.659 Y116.949 E74.74532
G1 X127.048 Y116.949 E74.76090
G1 X127.983 Y117.884 E74.81382
G1 X127.983 Y117.495 E74.82940
G1 X127.437 Y116.949 E74.86030
G1 X127.826 Y116.949 E74.87588
G1 X127.983 Y117.106 E74.88474
G1 X109.150 Y116.949 F6600.000
G1 X124.371 Y132.170 E75.74650 F1200.000
G1 X123.982 Y132.170 E75.76208
G1 X108.761 Y116.949 E76.62383
G1 X108.372 Y116.949 E76.63941
G1 X123.592 Y132.170 E77.50117
G1 X123.203 Y132.170 E77.51674
G1 X107.983 Y116.949 E78.37850
G1 X107.594 Y116.949 E78.39408
G1 X122.814 Y132.170 E79.25583
G1 X122.425 Y132.170 E79.27141
G1 X107.205 Y116.949 E80.13317
G1 X106.816 Y116.949 E80.14875
G1 X122.036 Y132.170 E81.01050
G1 X121.647 Y132.170 E81.02608
G1 X106.426 Y116.949 E81.88784
G1 X106.037 Y116.949 E81.90341
