; generated by Slic3r 1.2.9 on 2017-07-05 at 00:47:34

; external perimeters extrusion width = 0.40mm
; perimeters extrusion width = 0.67mm
; infill extrusion width = 0.67mm
; solid infill extrusion width = 0.67mm
; top infill extrusion width = 0.67mm

M190 S65 ; set bed temperature
M104 S200 ; set temperature
G28 ; home all axes
G1 Z5 F5000 ; lift nozzle
M109 S200 ; wait for temperature to be reached
G21 ; set units to millimeters
G90 ; use absolute coordinates
M82 ; use absolute distances for extrusion
G92 E0
G1 E-0.80000 F1800.00000
G92 E0
G1 Z0.200 F6600.000
G1 Z0.250 F6600.000
G1 Z0.450 F6600.000
G1 X63.846 Y67.817 F6600.000
G1 Z0.250 F6600.000
G1 E0.80000 F1800.00000
M204 S1000
G1 X65.594 Y66.368 E0.85813 F1200.000
G1 X68.800 Y65.521 E0.94303
G1 X129.873 Y65.521 E2.50680
G1 X132.108 Y65.918 E2.56493
G1 X134.070 Y67.060 E2.62306 F1200.000
G1 X135.519 Y68.808 E2.68119
G1 X136.365 Y72.014 E2.76609
G1 X136.365 Y127.986 E4.19925
G1 X135.969 Y130.221 E4.25738
G1 X134.826 Y132.183 E4.31551
G1 X133.078 Y133.632 E4.37364
G1 X129.873 Y134.479 E4.45854
G1 X68.800 Y134.479 E6.02231
G1 X66.565 Y134.082 E6.08044
G1 X64.603 Y132.940 E6.13857
G1 X63.154 Y131.192 E6.19670
G1 X62.307 Y127.986 E6.28160
G1 X62.307 Y72.014 E7.71477
G1 X62.704 Y69.779 E7.77290
G1 X63.816 Y67.869 E7.82949
G1 X64.068 Y67.949 F6600.000
G1 X64.090 Y67.911 E7.83062 F1200.000
G1 X65.829 Y66.520 E7.88763
G1 X68.800 Y65.768 E7.96611
G1 X129.873 Y65.768 E9.52988
G1 X132.064 Y66.164 E9.58689
G1 X133.976 Y67.304 E9.64390 F1200.000
G1 X135.367 Y69.043 E9.70090
G1 X136.119 Y72.014 E9.77938
G1 X136.119 Y127.986 E11.21255
G1 X135.722 Y130.177 E11.26956
G1 X134.582 Y132.089 E11.32657
G1 X132.844 Y133.480 E11.38357
G1 X129.873 Y134.232 E11.46205
G1 X68.800 Y134.232 E13.02582
G1 X66.609 Y133.836 E13.08283
G1 X64.697 Y132.696 E13.13984
G1 X63.306 Y130.957 E13.19685
G1 X62.554 Y127.986 E13.27533
G1 X62.554 Y72.014 E14.70849
G1 X62.950 Y69.823 E14.76550
G1 X64.037 Y68.000 E14.81984
G1 E14.01984 F1800.00000
G92 E0
G1 Z0.450 F6600.000
G1 X129.723 Y127.836 F6600.000
G1 Z0.250 F6600.000
G1 E0.80000 F1800.00000
G1 X68.950 Y127.836 E2.35609 F648.000
G1 X68.950 Y72.164 E3.78157
G1 X129.723 Y72.164 E5.33766
G1 X129.723 Y127.776 E6.76161
G1 X129.376 Y127.636 F6600.000
G1 X129.476 Y127.590 F6600.000
G1 X69.196 Y127.590 E8.30509 F720.000
G1 X69.196 Y72.411 E9.71795
G1 X129.476 Y72.410 E11.26143
G1 X129.476 Y127.530 E12.67276
G1 X129.230 Y127.343 F6600.000
G1 X69.443 Y127.343 E14.20362 F720.000
G1 X69.443 Y72.657 E15.60386
G1 X129.230 Y72.657 E17.13472
G1 X129.230 Y127.283 E18.53344
G1 X129.093 Y72.938 F6600.000
G1 X128.948 Y72.794 E18.53868 F1200.000
G1 X128.600 Y72.794 E18.54761
G1 X129.093 Y73.287 E18.56547
G1 X129.093 Y73.635 E18.57440
G1 X128.251 Y72.794 E18.60490
G1 X127.903 Y72.794 E18.61383
G1 X129.093 Y73.984 E18.65695
G1 X129.093 Y74.333 E18.66588
G1 X127.554 Y72.794 E18.72163
G1 X127.206 Y72.794 E18.73056
G1 X129.093 Y74.681 E18.79895
G1 X129.093 Y75.030 E18.80788
G1 X126.857 Y72.794 E18.88889
G1 X126.508 Y72.794 E18.89782
G1 X129.093 Y75.378 E18.99146
G1 X129.093 Y75.727 E19.00039
G1 X126.160 Y72.794 E19.10666
G1 X125.811 Y72.794 E19.11559
G1 X129.093 Y76.076 E19.23448
G1 X129.093 Y76.424 E19.24341
G1 X125.463 Y72.794 E19.37494
G1 X125.114 Y72.794 E19.38387
G1 X129.093 Y76.773 E19.52803
G1 X129.093 Y77.121 E19.53696
G1 X124.766 Y72.794 E19.69374
G1 X124.417 Y72.794 E19.70267
G1 X129.093 Y77.470 E19.87209
G1 X129.093 Y77.818 E19.88102
G1 X124.068 Y72.794 E20.06306
G1 X123.720 Y72.794 E20.07199
G1 X129.093 Y78.167 E20.26667
G1 X129.093 Y78.516 E20.27560
G1 X123.371 Y72.794 E20.48290
G1 X123.023 Y72.794 E20.49183
G1 X129.093 Y78.864 E20.71176
G1 X129.093 Y79.213 E20.72069
G1 X122.674 Y72.794 E20.95325
G1 X122.325 Y72.794 E20.96218
G1 X129.093 Y79.561 E21.20737
G1 X129.093 Y79.910 E21.21630
G1 X121.977 Y72.794 E21.47412
G1 X121.628 Y72.794 E21.48305
G1 X129.093 Y80.258 E21.75350
G1 X129.093 Y80.607 E21.76243
G1 X121.280 Y72.794 E22.04550
G1 X120.931 Y72.794 E22.05443
G1 X129.093 Y80.956 E22.35014
G1 X129.093 Y81.304 E22.35907
G1 X120.583 Y72.794 E22.66740
G1 X120.234 Y72.794 E22.67633
G1 X129.093 Y81.653 E22.99730
G1 X129.093 Y82.001 E23.00623
G1 X119.885 Y72.794 E23.33982
G1 X119.537 Y72.794 E23.34875
G1 X129.093 Y82.350 E23.69497
G1 X129.093 Y82.699 E23.70390
G1 X119.188 Y72.794 E24.06276
G1 X118.840 Y72.794 E24.07169
G1 X129.093 Y83.047 E24.44317
G1 X129.093 Y83.396 E24.45210
G1 X118.491 Y72.794 E24.83621
G1 X118.143 Y72.794 E24.84514
G1 X129.093 Y83.744 E25.24187
G1 X129.093 Y84.093 E25.25081
G1 X117.794 Y72.794 E25.66017
G1 X117.445 Y72.794 E25.66910
G1 X129.093 Y84.441 E26.09110
G1 X129.093 Y84.790 E26.10003
G1 X117.097 Y72.794 E26.53466
G1 X116.748 Y72.794 E26.54359
G1 X129.093 Y85.139 E26.99084
G1 X129.093 Y85.487 E26.99977
G1 X116.400 Y72.794 E27.45966
G1 X116.051 Y72.794 E27.46859
G1 X129.093 Y85.836 E27.94110
G1 X129.093 Y86.184 E27.95003
G1 X115.703 Y72.794 E28.43517
G1 X115.354 Y72.794 E28.44410
G1 X129.093 Y86.533 E28.94188
G1 X129.093 Y86.881 E28.95081
G1 X115.005 Y72.794 E29.46121
G1 X114.657 Y72.794 E29.47014
G1 X129.093 Y87.230 E29.99317
G1 X129.093 Y87.579 E30.00210
G1 X114.308 Y72.794 E30.53776
G1 X113.960 Y72.794 E30.54669
G1 X129.093 Y87.927 E31.09498
G1 X129.093 Y88.276 E31.10391
G1 X113.611 Y72.794 E31.66482
G1 X113.263 Y72.794 E31.67375
G1 X129.093 Y88.624 E32.24730
G1 X129.093 Y88.973 E32.25623
G1 X112.914 Y72.794 E32.84241
G1 X112.565 Y72.794 E32.85134
G1 X129.093 Y89.322 E33.45014
G1 X129.093 Y89.670 E33.45907
G1 X112.217 Y72.794 E34.07051
G1 X111.868 Y72.794 E34.07944
G1 X129.093 Y90.019 E34.70350
G1 X129.093 Y90.367 E34.71243
G1 X111.520 Y72.794 E35.34912
G1 X111.171 Y72.794 E35.35805
G1 X129.093 Y90.716 E36.00737
G1 X129.093 Y91.064 E36.01630
G1 X110.822 Y72.794 E36.67825
G1 X110.474 Y72.794 E36.68718
G1 X129.093 Y91.413 E37.36176
G1 X129.093 Y91.762 E37.37069
G1 X110.125 Y72.794 E38.05790
G1 X109.777 Y72.794 E38.06683
G1 X129.093 Y92.110 E38.76667
G1 X129.093 Y92.459 E38.77560
G1 X109.428 Y72.794 E39.48807
G1 X109.080 Y72.794 E39.49700
G1 X129.093 Y92.807 E40.22209
G1 X129.093 Y93.156 E40.23102
G1 X108.731 Y72.794 E40.96875
G1 X108.382 Y72.794 E40.97768
G1 X129.093 Y93.504 E41.72803
G1 X129.093 Y93.853 E41.73696
G1 X108.034 Y72.794 E42.49995
G1 X107.685 Y72.794 E42.50888
G1 X129.093 Y94.202 E43.28449
G1 X129.093 Y94.550 E43.29342
G1 X107.337 Y72.794 E44.08166
G1 X106.988 Y72.794 E44.09059
G1 X129.093 Y94.899 E44.89146
G1 X129.093 Y95.247 E44.90039
G1 X106.640 Y72.794 E45.71389
G1 X106.291 Y72.794 E45.72282
G1 X129.093 Y95.596 E46.54895
G1 X129.093 Y95.945 E46.55788
G1 X105.942 Y72.794 E47.39664
G1 X105.594 Y72.794 E47.40557
G1 X129.093 Y96.293 E48.25696
G1 X129.093 Y96.642 E48.26589
G1 X105.245 Y72.794 E49.12991
G1 X104.897 Y72.794 E49.13884
G1 X129.093 Y96.990 E50.01548
G1 X129.093 Y97.339 E50.02441
G1 X104.548 Y72.794 E50.91369
G1 X104.200 Y72.794 E50.92262
G1 X129.093 Y97.687 E51.82452
G1 X129.093 Y98.036 E51.83345
G1 X103.851 Y72.794 E52.74798
G1 X103.502 Y72.794 E52.75691
G1 X129.093 Y98.385 E53.68408
G1 X129.093 Y98.733 E53.69301
G1 X103.154 Y72.794 E54.63280
G1 X102.805 Y72.794 E54.64173
G1 X129.093 Y99.082 E55.59415
G1 X129.093 Y99.430 E55.60308
G1 X102.457 Y72.794 E56.56813
G1 X102.108 Y72.794 E56.57706
G1 X129.093 Y99.779 E57.55474
G1 X129.093 Y100.127 E57.56367
G1 X101.759 Y72.794 E58.55398
G1 X101.411 Y72.794 E58.56291
G1 X129.093 Y100.476 E59.56584
G1 X129.093 Y100.825 E59.57477
G1 X101.062 Y72.794 E60.59034
G1 X100.714 Y72.794 E60.59927
G1 X129.093 Y101.173 E61.62746
G1 X129.093 Y101.522 E61.63639
G1 X100.365 Y72.794 E62.67722
G1 X100.017 Y72.794 E62.68615
G1 X129.093 Y101.870 E63.73960
G1 X129.093 Y102.219 E63.74853
G1 X99.668 Y72.794 E64.81462
G1 X99.319 Y72.794 E64.82355
G1 X129.093 Y102.568 E65.90226
G1 X129.093 Y102.916 E65.91119
G1 X98.971 Y72.794 E67.00253
G1 X98.622 Y72.794 E67.01146
G1 X129.093 Y103.265 E68.11543
G1 X129.093 Y103.613 E68.12436
G1 X98.274 Y72.794 E69.24096
G1 X97.925 Y72.794 E69.24989
G1 X129.093 Y103.962 E70.37912
G1 X129.093 Y104.310 E70.38805
G1 X97.577 Y72.794 E71.52990
G1 X97.228 Y72.794 E71.53883
G1 X129.093 Y104.659 E72.69332
G1 X129.093 Y105.008 E72.70225
G1 X96.879 Y72.794 E73.86937
G1 X96.531 Y72.794 E73.87830
G1 X129.093 Y105.356 E75.05804
G1 X129.093 Y105.705 E75.06697
G1 X96.182 Y72.794 E76.25934
G1 X95.834 Y72.794 E76.26827
G1 X129.093 Y106.053 E77.47328
G1 X129.093 Y106.402 E77.48221
G1 X95.485 Y72.794 E78.69984
G1 X95.137 Y72.794 E78.70877
G1 X129.093 Y106.751 E79.93903
G1 X129.093 Y107.099 E79.94796
G1 X94.788 Y72.794 E81.19085
G1 X94.439 Y72.794 E81.19978
G1 X129.093 Y107.448 E82.45530
G1 X129.093 Y107.796 E82.46423
G1 X94.091 Y72.794 E83.73238
G1 X93.742 Y72.794 E83.74131
G1 X129.093 Y108.145 E85.02209
G1 X129.093 Y108.493 E85.03102
G1 X93.394 Y72.794 E86.32443
G1 X93.045 Y72.794 E86.33336
G1 X129.093 Y108.842 E87.63939
G1 X129.093 Y109.191 E87.64832
G1 X92.696 Y72.794 E88.96699
G1 X92.348 Y72.794 E88.97592
G1 X129.093 Y109.539 E90.30721
G1 X129.093 Y109.888 E90.31614
G1 X91.999 Y72.794 E91.66007
G1 X91.651 Y72.794 E91.66900
G1 X129.093 Y110.236 E93.02555
G1 X129.093 Y110.585 E93.03448
G1 X91.302 Y72.794 E94.40366
G1 X90.954 Y72.794 E94.41259
G1 X129.093 Y110.933 E95.79440
G1 X129.093 Y111.282 E95.80333
G1 X90.605 Y72.794 E97.19777
G1 X90.256 Y72.794 E97.20670
G1 X129.093 Y111.631 E98.61377
G1 X129.093 Y111.979 E98.62270
G1 X89.908 Y72.794 E100.04240
G1 X89.559 Y72.794 E100.05133
G1 X129.093 Y112.328 E101.48366
G1 X129.093 Y112.676 E101.49259
G1 X89.211 Y72.794 E102.93754
G1 X88.862 Y72.794 E102.94647
G1 X129.093 Y113.025 E104.40406
G1 X129.093 Y113.374 E104.41299
G1 X88.514 Y72.794 E105.88320
G1 X88.165 Y72.794 E105.89213
G1 X129.093 Y113.722 E107.37498
G1 X129.093 Y114.071 E107.38391
G1 X87.816 Y72.794 E108.87938
G1 X87.468 Y72.794 E108.88831
G1 X129.093 Y114.419 E110.39641
G1 X129.093 Y114.768 E110.40534
G1 X87.119 Y72.794 E111.92607
G1 X86.771 Y72.794 E111.93500
G1 X129.093 Y115.116 E113.46836
G1 X129.093 Y115.465 E113.47729
G1 X86.422 Y72.794 E115.02328
G1 X86.074 Y72.794 E115.03221
G1 X129.093 Y115.814 E116.59083
G1 X129.093 Y116.162 E116.59976
G1 X85.725 Y72.794 E118.17101
G1 X85.376 Y72.794 E118.17994
G1 X129.093 Y116.511 E119.76382
G1 X129.093 Y116.859 E119.77275
G1 X85.028 Y72.794 E121.36925
G1 X84.679 Y72.794 E121.37818
G1 X129.093 Y117.208 E122.98732
G1 X129.093 Y117.556 E122.99625
G1 X84.331 Y72.794 E124.61801
G1 X83.982 Y72.794 E124.62694
G1 X129.093 Y117.905 E126.26134
G1 X129.093 Y118.254 E126.27027
G1 X83.634 Y72.794 E127.91729
G1 X83.285 Y72.794 E127.92622
G1 X129.093 Y118.602 E129.58587
G1 X129.093 Y118.951 E129.59480
G1 X82.936 Y72.794 E131.26708
G1 X82.588 Y72.794 E131.27601
G1 X129.093 Y119.299 E132.96092
G1 X129.093 Y119.648 E132.96985
G1 X82.239 Y72.794 E134.66739
G1 X81.891 Y72.794 E134.67632
G1 X129.093 Y119.997 E136.38649
G1 X129.093 Y120.345 E136.39542
G1 X81.542 Y72.794 E138.11822
G1 X81.193 Y72.794 E138.12715
G1 X129.093 Y120.694 E139.86257
G1 X129.093 Y121.042 E139.87150
G1 X80.845 Y72.794 E141.61956
G1 X80.496 Y72.794 E141.62849
G1 X129.093 Y121.391 E143.38917
G1 X129.093 Y121.739 E143.39810
G1 X80.148 Y72.794 E145.17142
G1 X79.799 Y72.794 E145.18035
G1 X129.093 Y122.088 E146.96629
G1 X129.093 Y122.437 E146.97522
G1 X79.451 Y72.794 E148.77379
G1 X79.102 Y72.794 E148.78272
G1 X129.093 Y122.785 E150.59392
G1 X129.093 Y123.134 E150.60285
G1 X78.753 Y72.794 E152.42668
G1 X78.405 Y72.794 E152.43561
G1 X129.093 Y123.482 E154.27207
G1 X129.093 Y123.831 E154.28100
G1 X78.056 Y72.794 E156.13009
G1 X77.708 Y72.794 E156.13902
G1 X129.093 Y124.179 E158.00074
G1 X129.093 Y124.528 E158.00967
G1 X77.359 Y72.794 E159.88402
G1 X77.011 Y72.794 E159.89295
G1 X129.093 Y124.877 E161.77992
G1 X129.093 Y125.225 E161.78885
G1 X76.662 Y72.794 E163.68846
G1 X76.313 Y72.794 E163.69739
G1 X129.093 Y125.574 E165.60962
G1 X129.093 Y125.922 E165.61855
G1 X75.965 Y72.794 E167.54342
G1 X75.616 Y72.794 E167.55235
G1 X129.093 Y126.271 E169.48984
G1 X129.093 Y126.620 E169.49877
G1 X75.268 Y72.794 E171.44889
G1 X74.919 Y72.794 E171.45782
G1 X129.093 Y126.968 E173.42057
G1 X128.983 Y127.206 E173.42730
G1 X74.571 Y72.794 E175.39867
G1 X74.222 Y72.794 E175.40760
G1 X128.634 Y127.206 E177.37898
G1 X128.285 Y127.206 E177.38791
G1 X73.873 Y72.794 E179.35929
G1 X73.525 Y72.794 E179.36822
G1 X127.937 Y127.206 E181.33960
G1 X127.588 Y127.206 E181.34853
G1 X73.176 Y72.794 E183.31990
G1 X72.828 Y72.794 E183.32883
G1 X127.240 Y127.206 E185.30021
G1 X126.891 Y127.206 E185.30914
G1 X72.479 Y72.794 E187.28052
G1 X72.130 Y72.794 E187.28945
G1 X126.542 Y127.206 E189.26083
G1 X126.194 Y127.206 E189.26976
G1 X71.782 Y72.794 E191.24113
G1 X71.433 Y72.794 E191.25006
G1 X125.845 Y127.206 E193.22144
G1 X125.497 Y127.206 E193.23037
G1 X71.085 Y72.794 E195.20175
G1 X70.736 Y72.794 E195.21068
G1 X125.148 Y127.206 E197.18205
G1 X124.800 Y127.206 E197.19098
G1 X70.388 Y72.794 E199.16236
G1 X70.039 Y72.794 E199.17129
G1 X124.451 Y127.206 E201.14267
G1 X124.102 Y127.206 E201.15160
G1 X69.690 Y72.794 E203.12298
G1 X69.580 Y73.032 E203.12970
G1 X123.754 Y127.206 E205.09245
G1 X123.405 Y127.206 E205.10138
G1 X69.580 Y73.381 E207.05151
G1 X69.580 Y73.729 E207.06044
G1 X123.057 Y127.206 E208.99794
G1 X122.708 Y127.206 E209.00687
G1 X69.580 Y74.078 E210.93174
G1 X69.580 Y74.427 E210.94067
G1 X122.360 Y127.206 E212.85290
G1 X122.011 Y127.206 E212.86183
G1 X69.580 Y74.775 E214.76144
G1 X69.580 Y75.124 E214.77037
G1 X121.662 Y127.206 E216.65735
G1 X121.314 Y127.206 E216.66628
G1 X69.580 Y75.472 E218.54064
G1 X69.580 Y75.821 E218.54957
G1 X120.965 Y127.206 E220.41129
G1 X120.617 Y127.206 E220.42022
G1 X69.580 Y76.169 E222.26931
G1 X69.580 Y76.518 E222.27824
G1 X120.268 Y127.206 E224.11470
G1 X119.919 Y127.206 E224.12363
G1 X69.580 Y76.867 E225.94747
G1 X69.580 Y77.215 E225.95640
G1 X119.571 Y127.206 E227.76760
G1 X119.222 Y127.206 E227.77653
G1 X69.580 Y77.564 E229.57511
G1 X69.580 Y77.912 E229.58404
G1 X118.874 Y127.206 E231.36999
G1 X118.525 Y127.206 E231.37892
G1 X69.580 Y78.261 E233.15223
G1 X69.580 Y78.609 E233.16116
G1 X118.177 Y127.206 E234.92185
G1 X117.828 Y127.206 E234.93078
G1 X69.580 Y78.958 E236.67884
G1 X69.580 Y79.307 E236.68777
G1 X117.479 Y127.206 E238.42320
G1 X117.131 Y127.206 E238.43213
G1 X69.580 Y79.655 E240.15493
G1 X69.580 Y80.004 E240.16386
G1 X116.782 Y127.206 E241.87403
G1 X116.434 Y127.206 E241.88296
G1 X69.580 Y80.352 E243.58050
G1 X69.580 Y80.701 E243.58944
G1 X116.085 Y127.206 E245.27435
G1 X115.737 Y127.206 E245.28328
G1 X69.580 Y81.050 E246.95556
G1 X69.580 Y81.398 E246.96449
G1 X115.388 Y127.206 E248.62415
G1 X115.039 Y127.206 E248.63308
G1 X69.580 Y81.747 E250.28010
G1 X69.580 Y82.095 E250.28903
G1 X114.691 Y127.206 E251.92343
G1 X114.342 Y127.206 E251.93236
G1 X69.580 Y82.444 E253.55412
G1 X69.580 Y82.792 E253.56305
G1 X113.994 Y127.206 E255.17219
G1 X113.645 Y127.206 E255.18112
G1 X69.580 Y83.141 E256.77763
G1 X69.580 Y83.490 E256.78656
G1 X113.296 Y127.206 E258.37044
G1 X112.948 Y127.206 E258.37937
G1 X69.580 Y83.838 E259.95062
G1 X69.580 Y84.187 E259.95955
G1 X112.599 Y127.206 E261.51817
G1 X112.251 Y127.206 E261.52710
G1 X69.580 Y84.535 E263.07309
G1 X69.580 Y84.884 E263.08202
G1 X111.902 Y127.206 E264.61538
G1 X111.554 Y127.206 E264.62431
G1 X69.580 Y85.232 E266.14505
G1 X69.580 Y85.581 E266.15398
G1 X111.205 Y127.206 E267.66208
G1 X110.856 Y127.206 E267.67101
G1 X69.580 Y85.930 E269.16649
G1 X69.580 Y86.278 E269.17542
G1 X110.508 Y127.206 E270.65826
G1 X110.159 Y127.206 E270.66719
G1 X69.580 Y86.627 E272.13741
G1 X69.580 Y86.975 E272.14634
G1 X109.811 Y127.206 E273.60392
G1 X109.462 Y127.206 E273.61285
G1 X69.580 Y87.324 E275.05781
G1 X69.580 Y87.673 E275.06674
G1 X109.114 Y127.206 E276.49907
G1 X108.765 Y127.206 E276.50800
G1 X69.580 Y88.021 E277.92770
G1 X69.580 Y88.370 E277.93663
G1 X108.416 Y127.206 E279.34370
G1 X108.068 Y127.206 E279.35263
G1 X69.580 Y88.718 E280.74707
G1 X69.580 Y89.067 E280.75600
G1 X107.719 Y127.206 E282.13781
G1 X107.371 Y127.206 E282.14674
G1 X69.580 Y89.415 E283.51593
G1 X69.580 Y89.764 E283.52486
G1 X107.022 Y127.206 E284.88141
